public/images/ideas.svg

<svg width="24" height="24" viewBox="0 0 24 24" fill="none" xmlns="http://www.w3.org/2000/svg">
<g clip-path="url(#clip0_7405_118)">
<path d="M12 3.457C11.586 3.457 11.25 3.121 11.25 2.707V0.75C11.25 0.336 11.586 0 12 0C12.414 0 12.75 0.336 12.75 0.75V2.707C12.75 3.121 12.414 3.457 12 3.457Z" fill="#0E0E10"/>
<path d="M18.571 6.1787C18.379 6.1787 18.187 6.1057 18.041 5.9587C17.748 5.6657 17.748 5.1907 18.041 4.8977L19.425 3.5137C19.718 3.2207 20.193 3.2207 20.486 3.5137C20.779 3.8067 20.779 4.2817 20.486 4.5747L19.102 5.9587C18.955 6.1047 18.763 6.1787 18.571 6.1787Z" fill="#0E0E10"/>
<path d="M23.25 12.75H21.293C20.879 12.75 20.543 12.414 20.543 12C20.543 11.586 20.879 11.25 21.293 11.25H23.25C23.664 11.25 24 11.586 24 12C24 12.414 23.664 12.75 23.25 12.75Z" fill="#0E0E10"/>
<path d="M19.955 20.7051C19.763 20.7051 19.571 20.6321 19.425 20.4851L18.041 19.1011C17.748 18.8081 17.748 18.3331 18.041 18.0401C18.334 17.7471 18.809 17.7471 19.102 18.0401L20.486 19.4241C20.779 19.7171 20.779 20.1921 20.486 20.4851C20.339 20.6321 20.147 20.7051 19.955 20.7051Z" fill="#0E0E10"/>
<path d="M4.04504 20.7051C3.85304 20.7051 3.66104 20.6321 3.51504 20.4851C3.22204 20.1921 3.22204 19.7171 3.51504 19.4241L4.89904 18.0401C5.19204 17.7471 5.66704 17.7471 5.96004 18.0401C6.25304 18.3331 6.25304 18.8081 5.96004 19.1011L4.57604 20.4851C4.42904 20.6321 4.23704 20.7051 4.04504 20.7051Z" fill="#0E0E10"/>
<path d="M2.707 12.75H0.75C0.336 12.75 0 12.414 0 12C0 11.586 0.336 11.25 0.75 11.25H2.707C3.121 11.25 3.457 11.586 3.457 12C3.457 12.414 3.121 12.75 2.707 12.75Z" fill="#0E0E10"/>
<path d="M5.42904 6.1787C5.23704 6.1787 5.04504 6.1057 4.89904 5.9587L3.51504 4.5747C3.22204 4.2817 3.22204 3.8067 3.51504 3.5137C3.80804 3.2207 4.28304 3.2207 4.57604 3.5137L5.96004 4.8977C6.25304 5.1907 6.25304 5.6657 5.96004 5.9587C5.81204 6.1047 5.62104 6.1787 5.42904 6.1787Z" fill="#0E0E10"/>
<path d="M15 21V22.25C15 23.21 14.21 24 13.25 24H10.75C9.91 24 9 23.36 9 21.96V21H15Z" fill="#0E0E10"/>
<path d="M16.4099 6.55961C14.7699 5.22961 12.6099 4.70961 10.4999 5.15961C7.84994 5.70961 5.69994 7.86961 5.14994 10.5196C4.58994 13.2396 5.60994 15.9396 7.78994 17.5896C8.37994 18.0296 8.78994 18.7096 8.92994 19.4996V19.5096C8.94994 19.4996 8.97994 19.4996 8.99994 19.4996H14.9999C15.0199 19.4996 15.0299 19.4996 15.0499 19.5096V19.4996C15.1899 18.7396 15.6399 18.0396 16.3299 17.4996C18.0199 16.1596 18.9999 14.1596 18.9999 11.9996C18.9999 9.87961 18.0599 7.89961 16.4099 6.55961ZM15.7499 12.4996C15.3399 12.4996 14.9999 12.1596 14.9999 11.7496C14.9999 10.2296 13.7699 8.99961 12.2499 8.99961C11.8399 8.99961 11.4999 8.65961 11.4999 8.24961C11.4999 7.83961 11.8399 7.49961 12.2499 7.49961C14.5899 7.49961 16.4999 9.40961 16.4999 11.7496C16.4999 12.1596 16.1599 12.4996 15.7499 12.4996Z" fill="#0E0E10"/>
<path d="M8.93005 19.5H9.00005C8.98005 19.5 8.95005 19.5 8.93005 19.51V19.5Z" fill="#0E0E10"/>
<path d="M15.05 19.5V19.51C15.03 19.5 15.02 19.5 15 19.5H15.05Z" fill="#0E0E10"/>
</g>
<defs>
<clipPath id="clip0_7405_118">
<rect width="24" height="24" fill="white"/>
</clipPath>
</defs>
</svg>

<svg xmlns="http://www.w3.org/2000/svg" width="24" height="24" fill="none"><g fill="#0E0E10" clip-path="url(#a)"><path d="M12 3.457a.75.75 0 0 1-.75-.75V.75a.75.75 0 0 1 1.5 0v1.957a.75.75 0 0 1-.75.75M18.571 6.179a.75.75 0 0 1-.53-1.281l1.384-1.384a.75.75 0 1 1 1.061 1.06L19.102 5.96a.75.75 0 0 1-.531.22M23.25 12.75h-1.957a.75.75 0 0 1 0-1.5h1.957a.75.75 0 0 1 0 1.5M19.955 20.705a.74.74 0 0 1-.53-.22l-1.384-1.384a.75.75 0 1 1 1.061-1.06l1.384 1.383a.75.75 0 0 1-.531 1.281M4.045 20.705a.75.75 0 0 1-.53-1.281l1.384-1.384a.75.75 0 1 1 1.061 1.061l-1.384 1.384a.75.75 0 0 1-.531.22M2.707 12.75H.75a.75.75 0 0 1 0-1.5h1.957a.75.75 0 0 1 0 1.5M5.429 6.179a.74.74 0 0 1-.53-.22L3.515 4.575a.75.75 0 1 1 1.061-1.061L5.96 4.898a.75.75 0 0 1-.531 1.28M15 21v1.25c0 .96-.79 1.75-1.75 1.75h-2.5C9.91 24 9 23.36 9 21.96V21zM16.41 6.56a7.03 7.03 0 0 0-5.91-1.4c-2.65.55-4.8 2.71-5.35 5.36-.56 2.72.46 5.42 2.64 7.07.59.44 1 1.12 1.14 1.91v.01c.02-.01.05-.01.07-.01h6c.02 0 .03 0 .05.01v-.01c.14-.76.59-1.46 1.28-2A6.99 6.99 0 0 0 19 12c0-2.12-.94-4.1-2.59-5.44m-.66 5.94c-.41 0-.75-.34-.75-.75C15 10.23 13.77 9 12.25 9c-.41 0-.75-.34-.75-.75s.34-.75.75-.75a4.26 4.26 0 0 1 4.25 4.25c0 .41-.34.75-.75.75"/><path d="M8.93 19.5H9c-.02 0-.05 0-.07.01zM15.05 19.5v.01c-.02-.01-.03-.01-.05-.01z"/></g><defs><clipPath id="a"><path fill="#fff" d="M0 0h24v24H0z"/></clipPath></defs></svg>
